assets/icons/iconDate.svg

<svg width="24" height="24" viewBox="0 0 24 24" fill="none" xmlns="http://www.w3.org/2000/svg">
<mask id="mask0_27_106" style="mask-type:alpha" maskUnits="userSpaceOnUse" x="0" y="0" width="24" height="24">
<rect width="24" height="24" fill="#D9D9D9"/>
</mask>
<g mask="url(#mask0_27_106)">
<path d="M8 14C7.71667 14 7.47917 13.9042 7.2875 13.7125C7.09583 13.5208 7 13.2833 7 13C7 12.7167 7.09583 12.4792 7.2875 12.2875C7.47917 12.0958 7.71667 12 8 12C8.28333 12 8.52083 12.0958 8.7125 12.2875C8.90417 12.4792 9 12.7167 9 13C9 13.2833 8.90417 13.5208 8.7125 13.7125C8.52083 13.9042 8.28333 14 8 14ZM12 14C11.7167 14 11.4792 13.9042 11.2875 13.7125C11.0958 13.5208 11 13.2833 11 13C11 12.7167 11.0958 12.4792 11.2875 12.2875C11.4792 12.0958 11.7167 12 12 12C12.2833 12 12.5208 12.0958 12.7125 12.2875C12.9042 12.4792 13 12.7167 13 13C13 13.2833 12.9042 13.5208 12.7125 13.7125C12.5208 13.9042 12.2833 14 12 14ZM16 14C15.7167 14 15.4792 13.9042 15.2875 13.7125C15.0958 13.5208 15 13.2833 15 13C15 12.7167 15.0958 12.4792 15.2875 12.2875C15.4792 12.0958 15.7167 12 16 12C16.2833 12 16.5208 12.0958 16.7125 12.2875C16.9042 12.4792 17 12.7167 17 13C17 13.2833 16.9042 13.5208 16.7125 13.7125C16.5208 13.9042 16.2833 14 16 14ZM5 22C4.45 22 3.97917 21.8042 3.5875 21.4125C3.19583 21.0208 3 20.55 3 20V6C3 5.45 3.19583 4.97917 3.5875 4.5875C3.97917 4.19583 4.45 4 5 4H6V3C6 2.71667 6.09583 2.47917 6.2875 2.2875C6.47917 2.09583 6.71667 2 7 2C7.28333 2 7.52083 2.09583 7.7125 2.2875C7.90417 2.47917 8 2.71667 8 3V4H16V3C16 2.71667 16.0958 2.47917 16.2875 2.2875C16.4792 2.09583 16.7167 2 17 2C17.2833 2 17.5208 2.09583 17.7125 2.2875C17.9042 2.47917 18 2.71667 18 3V4H19C19.55 4 20.0208 4.19583 20.4125 4.5875C20.8042 4.97917 21 5.45 21 6V20C21 20.55 20.8042 21.0208 20.4125 21.4125C20.0208 21.8042 19.55 22 19 22H5ZM5 20H19V10H5V20ZM5 8H19V6H5V8Z" fill="#483C34"/>
</g>
</svg>

<?xml version="1.0" encoding="utf-8"?>
<!-- Generator: Adobe Illustrator 24.3.0, SVG Export Plug-In . SVG Version: 6.00 Build 0)  -->
<svg version="1.1" id="圖層_1" xmlns="http://www.w3.org/2000/svg" xmlns:xlink="http://www.w3.org/1999/xlink" x="0px" y="0px"
	 viewBox="0 0 24 24" style="enable-background:new 0 0 24 24;" xml:space="preserve">
<style type="text/css">
	.st0{fill:#D9D9D9;filter:url(#Adobe_OpacityMaskFilter);}
	.st1{mask:url(#mask0_27_106_1_);}
	.st2{fill:#FA863E;}
</style>
<defs>
	<filter id="Adobe_OpacityMaskFilter" filterUnits="userSpaceOnUse" x="3" y="2" width="18" height="20">
		<feColorMatrix  type="matrix" values="1 0 0 0 0  0 1 0 0 0  0 0 1 0 0  0 0 0 1 0"/>
	</filter>
</defs>
<mask maskUnits="userSpaceOnUse" x="3" y="2" width="18" height="20" id="mask0_27_106_1_">
	<rect class="st0" width="24" height="24"/>
</mask>
<g class="st1">
	<path class="st2" d="M8,14c-0.3,0-0.5-0.1-0.7-0.3S7,13.3,7,13s0.1-0.5,0.3-0.7S7.7,12,8,12s0.5,0.1,0.7,0.3C8.9,12.5,9,12.7,9,13
		s-0.1,0.5-0.3,0.7C8.5,13.9,8.3,14,8,14z M12,14c-0.3,0-0.5-0.1-0.7-0.3S11,13.3,11,13s0.1-0.5,0.3-0.7S11.7,12,12,12
		s0.5,0.1,0.7,0.3S13,12.7,13,13s-0.1,0.5-0.3,0.7S12.3,14,12,14z M16,14c-0.3,0-0.5-0.1-0.7-0.3S15,13.3,15,13s0.1-0.5,0.3-0.7
		S15.7,12,16,12s0.5,0.1,0.7,0.3S17,12.7,17,13s-0.1,0.5-0.3,0.7S16.3,14,16,14z M5,22c-0.6,0-1-0.2-1.4-0.6C3.2,21,3,20.5,3,20V6
		c0-0.6,0.2-1,0.6-1.4C4,4.2,4.4,4,5,4h1V3c0-0.3,0.1-0.5,0.3-0.7C6.5,2.1,6.7,2,7,2s0.5,0.1,0.7,0.3C7.9,2.5,8,2.7,8,3v1h8V3
		c0-0.3,0.1-0.5,0.3-0.7C16.5,2.1,16.7,2,17,2s0.5,0.1,0.7,0.3C17.9,2.5,18,2.7,18,3v1h1c0.5,0,1,0.2,1.4,0.6C20.8,5,21,5.4,21,6v14
		c0,0.5-0.2,1-0.6,1.4C20,21.8,19.5,22,19,22H5z M5,20h14V10H5V20z M5,8h14V6H5V8z"/>
</g>
</svg>
